svgs/sharp-light/battery-low.svg

<svg xmlns="http://www.w3.org/2000/svg" viewBox="0 0 576 512"><!--! Font Awesome Pro 6.6.0 by @fontawesome - https://fontawesome.com License - https://fontawesome.com/license (Commercial License) Copyright 2024 Fonticons, Inc. --><path d="M480 128l0 256L32 384l0-256 448 0zM32 96L0 96l0 32L0 384l0 32 32 0 448 0 32 0 0-32 0-256 0-32-32 0L32 96zm544 96l-32 0 0 32 0 64 0 32 32 0 0-32 0-64 0-32zM96 192l32 0 0 128-32 0 0-128zM64 160l0 32 0 128 0 32 32 0 32 0 32 0 0-32 0-128 0-32-32 0-32 0-32 0z"/></svg>

<svg xmlns="http://www.w3.org/2000/svg" viewBox="0 0 576 512"><!--! Font Awesome Pro 6.4.0 by @fontawesome - https://fontawesome.com License - https://fontawesome.com/license (Commercial License) Copyright 2023 Fonticons, Inc. --><path d="M480 128V384H32V128H480zM32 96H0v32V384v32H32 480h32V384 128 96H480 32zm544 96H544v32 64 32h32V288 224 192zM96 192h32V320H96V192zM64 160v32V320v32H96h32 32V320 192 160H128 96 64z"/></svg>
